X:1
T:Title
%%score { 1 | 2 }
L:1/8
Q:1/4=100
M:4/4
K:D
V:1 treble nm="Grand Piano"
V:2 bass 
V:1
 F2 F2 FEDF | [FA]2 [GB]2 [FA]4 | F2 F2 FEDF | [CE]2 [DF]2 [CE]4 | F2 F2 FEDF | [FA]2 [GB]2 [FA]4 | %6
w: Herbert~G.~Tovey * * * * *||||||
 [DGB][DAc][DBd][DGB] [DFA]2 [A,DF]2 | [A,DF]2[K:bass] [G,CE]2 [F,D]4 | %8
w: ||
 [Fd]2 [Fd]2 [Fd] [Fc]2 [FB] | c2 c2 c4 | c2 c2 c B2 A | [FB]2 [DF]2 [FA]4 | FEDE F2 [FA]2 | %13
w: |||||
 [Fd][DF][DG][DA] [DB]4 | d2 B2 A A2 d | e2 c2 [Fd]4 |] %16
w: |||
V:2
 [D,A,D]2 [D,A,D]2 [D,A,D][D,G,D][D,F,][D,A,D] | [D,D]2 [D,D]2 [D,D]4 | %2
 [D,A,D]2 [D,A,D]2 [D,A,D][D,G,D][D,F,][D,A,D] | [A,,A,]2 [A,,A,]2 [A,,A,]4 | %4
 [D,A,D]2 [D,A,D]2 [D,A,D][D,G,D][D,F,][D,A,D] | [D,D]2 [D,D]2 [D,D]4 | G,G,G,G, D,2 D,2 | %7
 A,,2 A,,2 D,4 | [D,A,]2 [D,A,]2 [D,A,] [D,A,]2 [D,D] | [A,EG]2 [A,EG]2 [A,EG]4 | %10
 [A,EG]2 [A,EG]2 [A,EG] [A,CG]2 [A,CG] | [D,D]2 [D,A,]2 [D,D]4 | %12
 [D,A,D][D,G,D][D,F,][D,G,D] [D,A,D]2 [D,D]2 | [D,D][=C,A,][B,,G,][A,,F,] [G,,G,]4 | %14
 [G,B,G]2 [G,DG]2 [A,DF] [A,DF]2 [B,DF] | [A,CG]2 [A,EG]2[K:bass] [D,D]4 |] %16

